X:1
T:Title
%%score 1 { 2 | 3 }
L:1/8
Q:1/4=90
M:4/4
K:Eb
V:1 treble nm="Grand Piano, Soprano"
V:2 treble nm="Choir Pad, I Will Praise Thee"
V:3 bass 
V:1
 [EG]>[FA] [GB]>[_G=A] [=GB]>[_Ac] [GB]>[FA] | [EG]>[GB] [Ae]>[ce] [Bd]>[Ac] [GB]2 | %2
w: By~John~S.~Hendricks * * * * * * *||
 [EG]>[EG] [FA]>[=EG] [FA]>[GB] [Ad]>[Ac] | [GB]>[FA] [EG]>[Ec] [EB]>E [DF]2 | %4
w: ||
 [EG]>[FA] [GB]>[_G=A] [=GB]>[_Ac] [GB]>[FA] | [EG]>[GB] [Ae]>[ce] [Bd]>[Ac] [GB]2 | %6
w: ||
 [EB]>[EB] [Ec]>[Ec] [Ec]>[Ec] [Ff]>[Fe] | [Fd]>[Fc] [AB]>[AB] [Ac]>[Ad] [Ge]2 | %8
w: ||
 [EG]>[FA] [GB]4 [Ge]2- | [Ge]2 [Ae]4 [Ac]2 | [Ac]>[Ac] [GB]>[GB] [GB]>[GB] [Ac]>[GB] | %11
w: |||
 [Ge]>[EG] [DF]6 | [EG]>[FA] [GB]>[_G=A] [=GB]>[_Ac] [GB]>[FA] | %13
w: ||
 [EG]>[GB] [Ae]>[ce] [Bd]>[Ac] [GB]2 | [EB]>[EB] [Ec]>[Ec] [Ec]>[Ec] [Ff]>[Fe] | %15
w: ||
 [Fd]>[Fc] [AB]>[AB] [Ac]>[Ad] [Ge]2- | [Ge]6 z2 |] %17
w: ||
V:2
 B,>B, E>E E>E E>E | B,>B, C>E E>E E2 | B,>B, B,>B, B,>B, B,>B, | B,>B, B,>A, G,>B, B,2 | %4
 B,>B,[K:treble] E>E E>E E>E | B,>B, C>E E>E E2 | G,>G, A,>A, A,>A, =A,>A, | %7
 B,>[K:treble]E D>D D>B,[K:bass] B,2 | B,>B, E>E E>E B,>B, | B,>B,[K:treble] C>C C>C E2 | %10
 E>E E>E E>E E>E | B,>B, B,2 B,>B, B,>A, | B,>B,[K:treble] E>E E>E E>E | B,>B, C>E E>E E2 | %14
 G,>G, A,>A, A,>A, =A,>A, | B,>[K:treble]E D>D D>B, B,2- | B,6 z2 |] %17
V:3
 E,>E, E,>E, E,>E, E,>E, | E,>E, A,,>A,, A,,>C, E,2 | E,>E, B,,>B,, B,,>B,, B,,>B,, | %3
 C,>D, E,>E, E,>G,, B,,2 | E,>E, E,>E, E,>E, E,>E, | E,>E, A,,>A,, A,,>C, E,2 | E,>E, z2 z2 F,>F, | %7
 F,>F, B,>B, B,,>B,, E,2 | E,>E, E,>E, E,>E, E,>E, | E,>E, A,>A, A,>A, A,2 | %10
 A,>A, E,>E, E,>E, E,>E, | E,>E, B,,2 z4 | G,>F, E,>E, E,>E, E,>E, | E,>E, A,,>A,, A,,>C, E,2 | %14
 E,>E, z2 z2 F,>F, | F,>F, B,>B, B,,>B,, E,2- | E,6 z2 |] %17

